cssgg/dark-mode.svg

<svg
  width="24"
  height="24"
  viewBox="0 0 24 24"
  fill="none"
  xmlns="http://www.w3.org/2000/svg"
>
  <path
    d="M12 16C14.2091 16 16 14.2091 16 12C16 9.79086 14.2091 8 12 8V16Z"
    fill="currentColor"
  />
  <path
    fill-rule="evenodd"
    clip-rule="evenodd"
    d="M12 2C6.47715 2 2 6.47715 2 12C2 17.5228 6.47715 22 12 22C17.5228 22 22 17.5228 22 12C22 6.47715 17.5228 2 12 2ZM12 4V8C9.79086 8 8 9.79086 8 12C8 14.2091 9.79086 16 12 16V20C16.4183 20 20 16.4183 20 12C20 7.58172 16.4183 4 12 4Z"
    fill="currentColor"
  />
</svg>

<svg viewBox="0 0 24 24" xmlns="http://www.w3.org/2000/svg"><g><path d="M12 16c2.2 0 4-1.8 4-4 0-2.21-1.8-4-4-4v8Z"/><path fill-rule="evenodd" d="M12 2C6.47 2 2 6.47 2 12c0 5.52 4.47 10 10 10 5.52 0 10-4.48 10-10 0-5.53-4.48-10-10-10Zm0 2v4c-2.21 0-4 1.79-4 4 0 2.2 1.79 4 4 4v4c4.41 0 8-3.59 8-8 0-4.42-3.59-8-8-8Z"/></g></svg>
